X:19
T:Reel de Mattawa
C:Richard Forest
M:4/4
K:Em
A | vBBeB   gBe(uB | AB)eB gBe(uB | d2) fd gdf(ud | Ad)fd gdf(d | \
    B2) eB gBe(uB | AB)eB gBeB | f2 fg fedc | Bcd2 e3 z :: \
   f | gefd e^c d(B | AB)AF D2 FD | EFGA B2 ef | gfed A2 ef | \
   gefd e^cd(B | AB)AF D2 FD | EFGA B2 AG | FAGF E4 :|
